img/benefits/Group 32.svg

<svg width="92" height="63" viewBox="0 0 92 63" fill="none" xmlns="http://www.w3.org/2000/svg">
<rect x="0.2" y="0.2" width="91.6" height="62.6" rx="27.8" fill="#F9FBFF" stroke="#0037FC" stroke-width="0.4"/>
<path d="M46.1966 48C46.3906 48 46.5902 47.9544 46.7956 47.8631C47.001 47.7718 47.1779 47.6862 47.3262 47.6063C49.6426 46.1686 51.5796 44.9448 53.1372 43.9349C54.6948 42.9251 55.9328 41.9894 56.8514 41.1279C57.77 40.2663 58.4232 39.362 58.8112 38.4149C59.1992 37.4678 59.3932 36.3439 59.3932 35.043V22.2059C59.3932 21.2474 59.242 20.5542 58.9396 20.1263C58.6372 19.6984 58.0296 19.3076 57.1167 18.9538C56.4549 18.7142 55.8045 18.466 55.1655 18.2093C54.5265 17.9525 53.8846 17.7015 53.2399 17.4562C52.5952 17.2108 51.9533 16.9627 51.3143 16.7116C50.6753 16.4606 50.0306 16.2152 49.3802 15.9756C48.7298 15.736 48.0794 15.5021 47.4289 15.2739C47.2007 15.194 46.9925 15.1284 46.8042 15.077C46.6159 15.0257 46.4134 15 46.1966 15C45.9912 15 45.7915 15.0257 45.5975 15.077C45.4035 15.1284 45.1981 15.194 44.9813 15.2739C44.3309 15.5135 43.6805 15.756 43.0301 16.0013C42.3797 16.2466 41.7321 16.4948 41.0874 16.7459C40.4427 16.9969 39.798 17.2451 39.1533 17.4904C38.5086 17.7357 37.8667 17.9811 37.2277 18.2264C36.5887 18.4717 35.9383 18.7142 35.2765 18.9538C34.3636 19.2962 33.756 19.6841 33.4536 20.1177C33.1512 20.5513 33 21.2474 33 22.2059V35.043C33 36.3439 33.1997 37.4593 33.5991 38.3893C33.9984 39.3192 34.6603 40.2121 35.5845 41.0679C36.5088 41.9238 37.7469 42.8623 39.2988 43.8836C40.8506 44.9048 42.779 46.1457 45.084 47.6063C45.221 47.6862 45.3921 47.7718 45.5975 47.8631C45.8029 47.9544 46.0026 48 46.1966 48Z" fill="#0037FC"/>
<path d="M44.3827 38.7379C44.531 38.7379 44.6736 38.6694 44.8106 38.5325L54.0876 24.172C54.1104 24.1378 54.1303 24.0921 54.1475 24.0351C54.1646 23.978 54.1731 23.9267 54.1731 23.881C54.1731 23.7783 54.1303 23.6813 54.0448 23.5901C53.9592 23.4988 53.8593 23.4531 53.7452 23.4531C53.6197 23.4531 53.4828 23.533 53.3344 23.6928L44.3656 37.5911L39.2649 31.7374C39.2193 31.6689 39.1622 31.6204 39.0938 31.5919C39.0253 31.5633 38.9511 31.5491 38.8713 31.5491C38.7572 31.5491 38.6573 31.589 38.5717 31.6689C38.4861 31.7488 38.4434 31.8515 38.4434 31.977C38.4434 32.0797 38.4947 32.2052 38.5974 32.3535L43.9548 38.5325C44.0232 38.6009 44.0888 38.6523 44.1516 38.6865C44.2144 38.7208 44.2914 38.7379 44.3827 38.7379Z" fill="white"/>
</svg>

<svg width="92" height="63" fill="none" xmlns="http://www.w3.org/2000/svg"><rect x=".2" y=".2" width="91.6" height="62.6" rx="27.8" fill="#F9FBFF" stroke="#0037FC" stroke-width=".4"/><path d="M46.197 48c.194 0 .393-.046.599-.137.205-.091.382-.177.53-.257a357.703 357.703 0 005.811-3.671c1.558-1.01 2.796-1.946 3.714-2.807.919-.862 1.572-1.766 1.96-2.713.388-.947.582-2.071.582-3.372V22.206c0-.959-.151-1.652-.453-2.08-.303-.428-.91-.818-1.823-1.172a60.316 60.316 0 01-1.951-.745c-.64-.256-1.281-.508-1.926-.753s-1.287-.493-1.926-.744a97.05 97.05 0 00-1.934-.736c-.65-.24-1.3-.474-1.951-.702a9.392 9.392 0 00-.625-.197 2.304 2.304 0 00-.607-.077 2.35 2.35 0 00-.6.077 6.758 6.758 0 00-.616.197 211.96 211.96 0 00-3.894 1.472c-.644.25-1.289.5-1.934.744l-1.925.736c-.64.246-1.29.488-1.952.728-.912.342-1.52.73-1.822 1.164-.303.433-.454 1.13-.454 2.088v12.837c0 1.3.2 2.416.6 3.346.398.93 1.06 1.823 1.984 2.679.925.856 2.163 1.794 3.715 2.816a410.625 410.625 0 005.785 3.722c.137.08.308.166.513.257.206.091.406.137.6.137z" fill="#0037FC"/><path d="M44.383 38.738c.148 0 .29-.069.428-.206l9.277-14.36a.52.52 0 00.06-.137.543.543 0 00.025-.154.42.42 0 00-.128-.29.399.399 0 00-.3-.138c-.125 0-.262.08-.41.24l-8.97 13.898-5.1-5.854a.38.38 0 00-.171-.145.572.572 0 00-.223-.043.425.425 0 00-.428.428c0 .103.052.228.154.376l5.358 6.18c.068.068.134.12.197.154.062.034.14.05.23.05z" fill="#fff"/></svg>
